assets/images/politics.svg

<?xml version="1.0" standalone="no"?>
<!DOCTYPE svg PUBLIC "-//W3C//DTD SVG 1.0//EN" "http://www.w3.org/TR/2001/REC-SVG-20010904/DTD/svg10.dtd">
<svg xmlns="http://www.w3.org/2000/svg" xmlns:xlink="http://www.w3.org/1999/xlink" id="body_1" width="42" height="32">

<g transform="matrix(1 0 0 1.015873 0 0)">
    <path transform="matrix(1 0 0 1 -0.63 -3.78)"  d="M10.546 17.78L12.88 17.78L12.88 31.78L16.380001 31.78L16.380001 19.53L19.880001 19.53L19.880001 31.78L23.380001 31.78L23.380001 19.53L26.880001 19.53L26.880001 31.78L30.380001 31.78L30.380001 17.78L32.713 17.78C 33.358063 17.731083 33.861877 17.202662 33.88 16.556C 33.87499 16.184462 33.694824 15.83711 33.394 15.6189995L33.394 15.6189995L33.394 15.573999L33.376 15.542L33.493 15.513L22.5 9.852L22.5 8.2C 24.25 9.127 25.957 7.5309997 28.625 8.49L28.625 8.49L28.625 4.83C 25.955 3.8709998 24.25 5.466 22.5 4.539L22.5 4.539L22.5 4.3C 22.5 4.01 21.948 3.775 21.625 3.775C 21.302 3.775 20.75 4.01 20.75 4.3L20.75 4.3L20.75 9.852L9.766 15.5L10.003 15.518L10.255 15.528C 9.38 15.719 9.576 16.202 9.576 16.553C 9.576 17.133999 9.902 17.778 10.5460005 17.778L10.5460005 17.778L10.546 17.78zM12.004999 32.655L9.38 35.28L33.88 35.28L31.255001 32.655zM31.255 18.654999L31.255 31.78L32.029 31.78L32.371 32.264L34.7 34.451L35.525 35.28L42.625 35.28L42.625 18.655zM36.504997 29.154999L33.88 29.154999L33.88 26.53L36.505 26.53zM36.504997 23.904999L33.88 23.904999L33.88 21.28L36.505 21.28zM40.004997 29.154999L38.254997 29.154999L38.254997 26.53L40.004997 26.53zM40.004997 23.904999L38.254997 23.904999L38.254997 21.28L40.004997 21.28zM11.23 31.78L12.004999 31.78L12.004999 18.655L0.63 18.655L0.63 35.28L7.73 35.28L8.554 34.538L10.8880005 32.262997L11.2300005 31.779997zM5.005 29.155L3.255 29.155L3.255 26.53L5.005 26.53zM5.005 23.905L3.255 23.905L3.255 21.28L5.005 21.28zM9.38 29.155L6.755 29.155L6.755 26.53L9.38 26.53L9.38 29.155zM9.38 23.905L6.755 23.905L6.755 21.28L9.38 21.28L9.38 23.9z" stroke="none" fill="#CACACA" fill-rule="nonzero" />
</g>
</svg>

<svg xmlns="http://www.w3.org/2000/svg" width="86.729" height="89.218" viewBox="0 0 86.729 89.218"><g transform="translate(0.72 0.748)"><path d="M10.546,17.78H12.88v14h3.5V19.53h3.5V31.78h3.5V19.53h3.5V31.78h3.5v-14h2.333a1.263,1.263,0,0,0,1.167-1.224,1.177,1.177,0,0,0-.486-.937l0-.045-.018-.032.117-.029L22.5,9.852V8.2c1.75.927,3.457-.669,6.125.29V4.83c-2.67-.959-4.375.636-6.125-.291V4.3c0-.29-.552-.525-.875-.525s-.875.235-.875.525V9.852L9.766,15.5l.237.018.252.01v0c-.875.191-.679.674-.679,1.025,0,.581.326,1.225.97,1.225Zm1.459,14.875L9.38,35.28h24.5l-2.625-2.625Zm19.25-14V31.78h.774l.342.484L34.7,34.451l.825.829h7.1V18.655Zm5.25,10.5H33.88V26.53h2.625Zm0-5.25H33.88V21.28h2.625Zm3.5,5.25h-1.75V26.53h1.75Zm0-5.25h-1.75V21.28h1.75ZM11.23,31.78h.775V18.655H.63V35.28h7.1l.824-.742,2.334-2.275.342-.483ZM5.005,29.155H3.255V26.53h1.75Zm0-5.25H3.255V21.28h1.75Zm4.375,5.25H6.755V26.53H9.38v2.625Zm0-5.25H6.755V21.28H9.38V23.9Z" transform="translate(20.87 23.72)" fill="#cacaca"/><path d="M60,46.66V19.993a6.667,6.667,0,0,0-3.333-5.767L33.333.893a6.667,6.667,0,0,0-6.667,0L3.333,14.226A6.667,6.667,0,0,0,0,19.993V46.66a6.667,6.667,0,0,0,3.333,5.767L26.667,65.76a6.667,6.667,0,0,0,6.667,0L56.667,52.427A6.667,6.667,0,0,0,60,46.66Z" transform="translate(33.327) rotate(30)" fill="none" stroke="#f7df1e" stroke-linecap="round" stroke-linejoin="round" stroke-width="1"/></g></svg>
